X: 1
T: Corrido
Z: 1997 by John Chambers <jc@trillian.mit.edu> http://trillian.mit.edu/~jc/music/
M: 2/4
L: 1/8
%%indent 100
K: Bb
"Intro"[|]Fd | "Bb"B2 A2 | G2 Fd | "Cm"c2 B2 | A2 Ac | "F7"f2 e2 | d2 c2 | "Bb"B2 z2 | z4 | z4 | z2 ||
|: Fd | "Bb"B4- | B2 Fd | "F7"c4- | c2 Ac | ff ff |1 gg fe | "Bb"d4- | d2 :|2 "F7"gf ec | "Bb".B2 "F7".F2 | "Bb".B2 z2 || z4 | z4 |
| z4 | z4 |:[K:Bbm] "Bbm"d2 dd | ed cd | "F7"e2 c2- | c4 | e2 ee | fe dc |1 "Bbm"d4 | d2 dd :|2 "Bb".B2 "F7".F2 | "Bb".B2 ||[K:Bb]
|| Fd | "Bb"B4- | B2 Fd | "F7"c4- | c2 Ac | ff ff |1 gg fe | "Bb"d4- | d2 :|2 "F7"gf ec | "Bb".B2 "F7".F2 | "Bb".B2 |]
%%sep 5 5 200
